Netsuite.svg

<svg width="200" height="73" viewBox="0 0 200 73" fill="none" xmlns="http://www.w3.org/2000/svg">
<g clip-path="url(#clip0_29_239)">
<path d="M126.1 14.9C123.5 14.9 121.2 13.1 120.5 10.7H135.1L137.1 7.6H120.4C121.1 5.2 123.3 3.4 126 3.4H136.1L138.1 0.3H125.8C120.9 0.3 116.9 4.3 116.9 9.2C116.9 14.1 120.9 18.1 125.8 18.1H136.4L138.4 15H126L126.1 14.9ZM84.2 18H94.8L96.8 14.9H84.5C81.3 14.9 78.7 12.3 78.7 9.1C78.7 5.9 81.3 3.3 84.5 3.3H94.6L96.6 0.1H84.3C79.4 0.1 75.4 4.1 75.4 9C75.4 13.9 79.4 17.9 84.3 17.9M19.1 14.9H9.2C6 14.9 3.4 12.3 3.4 9.1C3.4 5.9 6 3.3 9.2 3.3H19.1C22.3 3.3 24.9 5.9 24.9 9.1C24.9 12.3 22.3 14.9 19.1 14.9ZM8.9 18H19.3C24.2 18 28.2 14 28.2 9.1C28.2 4.2 24.2 0.2 19.3 0.2H8.9C4 0.2 0 4.2 0 9.1C0 14 4 18 8.9 18ZM45 12.2C48.3 12.2 51 9.5 51 6.2C51 2.9 48.4 0.2 45 0.2H30V18H33.4V3.3H44.7C46.3 3.3 47.6 4.6 47.6 6.2C47.6 7.8 46.3 9.1 44.7 9.1H35L45.2 18H50.2L43.3 12.2H44.9M101.8 14.9V0.2H98.4V16.3C98.4 16.7 98.6 17.2 98.9 17.5C99.2 17.8 99.7 18 100.1 18H115.7L117.7 14.9H101.7H101.8ZM59.8 11.7H68.9L64.1 3.9L55.2 18H51.2L62 1.1C62.5 0.4 63.3 0 64.1 0C64.9 0 65.7 0.4 66.2 1.1L77 18H73L71.1 14.9H61.8L59.8 11.8V11.7Z" fill="black"/>
<path d="M25.3 62.6L5.2 32.8L5.1 32.6H0V72H5.5V42L25.6 71.8L25.7 72H30.8V32.6H25.3V62.6Z" fill="black"/>
<path d="M77.0996 67.4001C76.6996 67.4001 76.2996 67.4001 75.8996 67.4001C73.3996 67.4001 72.1996 66 72.1996 63.1V48H78.1996V43.5H72.1996V35.8H68.7996L66.8996 43.4001L62.0996 45V48H66.8996V63.1C66.8996 66.2 67.5996 68.4001 68.8996 69.9001C70.2996 71.4001 72.3996 72.1 75.1996 72.1C77.9996 72.1 76.2996 72.1 76.7996 72.1C77.2996 72.1 77.8996 72.0001 78.3996 71.9001H78.5996V67.1H78.2996C77.8996 67.1 77.4996 67.2001 77.0996 67.3001V67.4001Z" fill="black"/>
<path d="M133.1 61.9C132.4 63.7 131.3 65.2 129.9 66.4C128.5 67.5 127 68.1 125.4 68.1C123.8 68.1 122.1 67.5 121.1 66.3C120.1 65.1 119.6 63.3 119.6 61V43.6H114.2V61.1C114.2 64.8 115.1 67.6 116.8 69.6C118.6 71.6 121 72.6 124.2 72.6C127.4 72.6 128.2 72.1 129.9 71.2C131.5 70.4 132.8 69.2 133.9 67.7L134.7 72H138.5V43.6H133.1V62V61.9Z" fill="black"/>
<path d="M143.7 46L146.5 47.8V72H151.9V43.6H143.7V46Z" fill="black"/>
<path d="M151.8 34.3H145.4V39.2001H151.8V34.3Z" fill="black"/>
<path d="M171 67.4001C170.6 67.4001 170.2 67.4001 169.8 67.4001C167.3 67.4001 166.2 66 166.2 63.1V48H172.2V43.5H166.2V35.8H162.8L160.9 43.4001L156 45V48H160.8V63.1C160.8 66.2 161.5 68.4001 162.8 69.9001C164.2 71.4001 166.3 72.1 169.1 72.1C171.9 72.1 170.2 72.1 170.7 72.1C171.2 72.1 171.8 72.0001 172.3 71.9001H172.5V67.1H172.2C171.8 67.1 171.4 67.2001 171 67.3001V67.4001Z" fill="black"/>
<path d="M200 56.1C200 47.4 196 43 188.1 43C180.2 43 180.8 44.2 178.6 46.7C176.4 49.2 175.3 52.7 175.3 57.5C175.3 62.3 176.4 66.2 178.7 68.7C181 71.2 184.5 72.5 188.9 72.5C193.3 72.5 192.7 72.3 194.3 72C196 71.6 197.4 71.1 198.4 70.5H198.5V65.7L198.1 65.9C196.6 66.6 195.2 67.1 193.8 67.4C192.4 67.7 190.9 67.9 189.3 67.9C186.5 67.9 184.4 67.2 183 65.8C181.6 64.5 180.8 62.3 180.6 59.4H199.8V56L200 56.1ZM180.8 55.1C181 52.7 181.7 50.8 182.8 49.5C184 48.2 185.8 47.5 188.1 47.5C190.5 47.5 192.2 48.1 193.2 49.3C194.2 50.5 194.7 52.4 194.8 55.1H180.8Z" fill="black"/>
<path d="M48.2004 43C44.1004 43 40.9004 44.2 38.7004 46.7C36.5004 49.2 35.4004 52.7 35.4004 57.5C35.4004 62.3 36.6004 66.2 38.8004 68.7C41.1004 71.2 44.6004 72.5 49.0004 72.5C53.4004 72.5 52.8004 72.3 54.5004 72C56.2004 71.6 57.6004 71.1 58.6004 70.5H58.7004V65.7L58.3004 65.9C56.8004 66.6 55.4004 67.1 54.0004 67.4C52.6004 67.7 51.1004 67.9 49.5004 67.9C46.7004 67.9 44.6004 67.2 43.2004 65.8C41.9004 64.5 41.0004 62.3 40.8004 59.4H60.0004V56C60.0004 47.3 56.0004 42.9 48.1004 42.9L48.2004 43ZM40.9004 55.1C41.1004 52.7 41.8004 50.8 42.9004 49.5C44.1004 48.2 45.9004 47.5 48.2004 47.5C50.6004 47.5 52.3004 48.1 53.3004 49.3C54.3004 50.5 54.8004 52.4 54.9004 55.1H40.9004Z" fill="black"/>
<path d="M107.8 54.9C106.3 53.1 103.7 51.5 100.1 50.1L95.9998 48.5C93.3998 47.5 91.6998 46.5 90.6998 45.6C89.6998 44.7 89.2998 43.7 89.2998 42.5C89.2998 38.7 92.0998 36.9 97.6998 36.9C103.3 36.9 104 37.7 107.6 39.2L108 39.4V34.4H107.8C106.5 33.6 104.9 33 103 32.6C101.1 32.2 99.2998 31.9 97.5998 31.9C93.3998 31.9 89.9998 32.9 87.4998 34.7C84.9998 36.6 83.7998 39.2 83.7998 42.5C83.7998 45.8 84.5998 46.8 86.0998 48.6C87.6998 50.3 90.1998 51.8 93.6998 53.1L97.7998 54.7C100.5 55.7 102.3 56.7 103.3 57.7C104.3 58.6 104.8 59.8 104.8 61.3C104.8 62.8 104 64.8 102.4 65.9C100.8 67 98.4998 67.6 95.5998 67.6C92.6998 67.6 88.3998 66.8 84.4998 65.2L84.0998 65V70H84.2998C85.1998 70.5 86.2998 70.9 87.5998 71.3C88.8998 71.7 90.2998 72 91.6998 72.2C93.1998 72.4 94.5998 72.5 95.9998 72.5C100.5 72.5 104 71.5 106.5 69.6C109.1 67.6 110.3 64.8 110.3 61.2C110.3 57.6 109.5 56.6 107.9 54.8L107.8 54.9Z" fill="black"/>
</g>
<defs>
<clipPath id="clip0_29_239">
<rect width="200" height="72.6" fill="white"/>
</clipPath>
</defs>
</svg>

<?xml version="1.0" encoding="UTF-8"?>
<svg xmlns="http://www.w3.org/2000/svg" version="1.1" viewBox="0 0 200 72.6">
  <!-- Generator: Adobe Illustrator 28.6.0, SVG Export Plug-In . SVG Version: 1.2.0 Build 709)  -->
  <g>
    <g id="Layer_2">
      <g id="Layer_1-2">
        <g>
          <path d="M126.1,14.9c-2.6,0-4.9-1.8-5.6-4.2h14.6l2-3.1h-16.7c.7-2.4,2.9-4.2,5.6-4.2h10.1l2-3.1h-12.3c-4.9,0-8.9,4-8.9,8.9s4,8.9,8.9,8.9h10.6l2-3.1h-12.4,0ZM84.2,18h10.6l2-3.1h-12.3c-3.2,0-5.8-2.6-5.8-5.8s2.6-5.8,5.8-5.8h10.1l2-3.2h-12.3c-4.9,0-8.9,4-8.9,8.9s4,8.9,8.9,8.9M19.1,14.9h-9.9c-3.2,0-5.8-2.6-5.8-5.8s2.6-5.8,5.8-5.8h9.9c3.2,0,5.8,2.6,5.8,5.8s-2.6,5.8-5.8,5.8M8.9,18h10.4c4.9,0,8.9-4,8.9-8.9S24.2.2,19.3.2h-10.4C4,.2,0,4.2,0,9.1s4,8.9,8.9,8.9h0ZM45,12.2c3.3,0,6-2.7,6-6S48.4.2,45,.2h-15v17.8h3.4V3.3h11.3c1.6,0,2.9,1.3,2.9,2.9s-1.3,2.9-2.9,2.9h-9.7l10.2,8.9h5l-6.9-5.8h1.6M101.8,14.9V.2h-3.4v16.1c0,.4.2.9.5,1.2.3.3.8.5,1.2.5h15.6l2-3.1h-16ZM59.8,11.7h9.1l-4.8-7.8-8.9,14.1h-4L62,1.1c.5-.7,1.3-1.1,2.1-1.1s1.6.4,2.1,1.1l10.8,16.9h-4l-1.9-3.1h-9.3l-2-3.1h0Z"/>
          <g>
            <polygon points="25.3 62.6 5.2 32.8 5.1 32.6 0 32.6 0 72 5.5 72 5.5 42 25.6 71.8 25.7 72 30.8 72 30.8 32.6 25.3 32.6 25.3 62.6"/>
            <path d="M77.1,67.4c-.4,0-.8,0-1.2,0-2.5,0-3.7-1.4-3.7-4.3v-15.1h6v-4.5h-6v-7.7h-3.4l-1.9,7.6-4.8,1.6v3h4.8v15.1c0,3.1.7,5.3,2,6.8,1.4,1.5,3.5,2.2,6.3,2.2s1.1,0,1.6,0c.5,0,1.1-.1,1.6-.2h.2v-4.8h-.3c-.4,0-.8.1-1.2.2h0Z"/>
            <path d="M133.1,61.9c-.7,1.8-1.8,3.3-3.2,4.5-1.4,1.1-2.9,1.7-4.5,1.7s-3.3-.6-4.3-1.8c-1-1.2-1.5-3-1.5-5.3v-17.4h-5.4v17.5c0,3.7.9,6.5,2.6,8.5,1.8,2,4.2,3,7.4,3s4-.5,5.7-1.4c1.6-.8,2.9-2,4-3.5l.8,4.3h3.8v-28.4h-5.4v18.4h0Z"/>
            <polygon points="143.7 46 146.5 47.8 146.5 72 151.9 72 151.9 43.6 143.7 43.6 143.7 46"/>
            <rect x="145.4" y="34.3" width="6.4" height="4.9"/>
            <path d="M171,67.4c-.4,0-.8,0-1.2,0-2.5,0-3.6-1.4-3.6-4.3v-15.1h6v-4.5h-6v-7.7h-3.4l-1.9,7.6-4.9,1.6v3h4.8v15.1c0,3.1.7,5.3,2,6.8,1.4,1.5,3.5,2.2,6.3,2.2s1.1,0,1.6,0c.5,0,1.1-.1,1.6-.2h.2v-4.8h-.3c-.4,0-.8.1-1.2.2h0Z"/>
            <path d="M200,56.1c0-8.7-4-13.1-11.9-13.1s-7.3,1.2-9.5,3.7c-2.2,2.5-3.3,6-3.3,10.8s1.1,8.7,3.4,11.2c2.3,2.5,5.8,3.8,10.2,3.8s3.8-.2,5.4-.5c1.7-.4,3.1-.9,4.1-1.5h.1v-4.8l-.4.2c-1.5.7-2.9,1.2-4.3,1.5s-2.9.5-4.5.5c-2.8,0-4.9-.7-6.3-2.1-1.4-1.3-2.2-3.5-2.4-6.4h19.2v-3.4h0ZM180.8,55.1c.2-2.4.9-4.3,2-5.6,1.2-1.3,3-2,5.3-2h0c2.4,0,4.1.6,5.1,1.8,1,1.2,1.5,3.1,1.6,5.8h-14Z"/>
            <path d="M48.2,43c-4.1,0-7.3,1.2-9.5,3.7-2.2,2.5-3.3,6-3.3,10.8s1.2,8.7,3.4,11.2c2.3,2.5,5.8,3.8,10.2,3.8s3.8-.2,5.5-.5c1.7-.4,3.1-.9,4.1-1.5h.1v-4.8l-.4.2c-1.5.7-2.9,1.2-4.3,1.5s-2.9.5-4.5.5c-2.8,0-4.9-.7-6.3-2.1-1.3-1.3-2.2-3.5-2.4-6.4h19.2v-3.4c0-8.7-4-13.1-11.9-13.1h0ZM40.9,55.1c.2-2.4.9-4.3,2-5.6,1.2-1.3,3-2,5.3-2h0c2.4,0,4.1.6,5.1,1.8,1,1.2,1.5,3.1,1.6,5.8h-14Z"/>
            <path d="M107.8,54.9c-1.5-1.8-4.1-3.4-7.7-4.8l-4.1-1.6c-2.6-1-4.3-2-5.3-2.9-1-.9-1.4-1.9-1.4-3.1,0-3.8,2.8-5.6,8.4-5.6s6.3.8,9.9,2.3l.4.2v-5h-.2c-1.3-.8-2.9-1.4-4.8-1.8-1.9-.4-3.7-.7-5.4-.7-4.2,0-7.6,1-10.1,2.8-2.5,1.9-3.7,4.5-3.7,7.8s.8,4.3,2.3,6.1c1.6,1.7,4.1,3.2,7.6,4.5l4.1,1.6c2.7,1,4.5,2,5.5,3,1,.9,1.5,2.1,1.5,3.6s-.8,3.5-2.4,4.6c-1.6,1.1-3.9,1.7-6.8,1.7s-7.2-.8-11.1-2.4l-.4-.2v5h.2c.9.5,2,.9,3.3,1.3,1.3.4,2.7.7,4.1.9,1.5.2,2.9.3,4.3.3,4.5,0,8-1,10.5-2.9,2.6-2,3.8-4.8,3.8-8.4s-.8-4.6-2.4-6.4h0Z"/>
          </g>
        </g>
      </g>
    </g>
  </g>
</svg>
